; generated by PrusaSlicer 2.5.0+win64 on 2023-04-13 at 20:39:22 UTC

; 

; external perimeters extrusion width = 0.42mm
; perimeters extrusion width = 0.44mm
; infill extrusion width = 0.44mm
; solid infill extrusion width = 0.44mm
; top infill extrusion width = 0.40mm
; support material extrusion width = 0.36mm
; first layer extrusion width = 0.42mm

M107
;TYPE:Custom
G90 ; use absolute coordinates
M83 ; extruder relative mode
M140 S60 ; set final bed temp
M104 S150 ; set temporary nozzle temp to prevent oozing during homing
G4 S10 ; allow partial nozzle warmup
G28 ; home all axis
G1 Z50 F240
G1 X2 Y10 F3000
M104 S210 ; set final nozzle temp
M190 S60 ; wait for bed temp to stabilize
M109 S210 ; wait for nozzle temp to stabilize
G1 Z0.28 F240
G92 E0
G1 Y140 E10 F1500 ; prime the nozzle
G1 X2.3 F5000
G92 E0
G1 Y10 E10 F1200 ; prime the nozzle
G92 E0
G21 ; set units to millimeters
G90 ; use absolute coordinates
M83 ; use relative distances for extrusion
; Filament gcode
M107
;LAYER_CHANGE
;Z:0.2
;HEIGHT:0.2
;BEFORE_LAYER_CHANGE
G92 E0
;0.2


G1 E-5 F3600
G1 Z.2 F9000
;AFTER_LAYER_CHANGE
;0.2
G1 X102.074 Y102.491
G1 E5 F2400
M204 S500
;TYPE:Skirt/Brim
;WIDTH:0.42
G1 F1200
G1 X104.274 Y100.551 E.09198
G1 X107.276 Y98.711 E.11038
G1 X110.004 Y97.631 E.09198
G1 X112.867 Y96.991 E.09198
G1 X115.205 Y96.807 E.07355
G1 X118.133 Y96.991 E.09198
G1 X121.556 Y97.813 E.11038
G1 X124.249 Y98.979 E.09198
G1 X126.726 Y100.551 E.09198
G1 X128.509 Y102.074 E.07355
G1 X130.449 Y104.274 E.09198
G1 X132.289 Y107.276 E.11038
G1 X133.369 Y110.004 E.09198
G1 X134.009 Y112.867 E.09198
G1 X134.193 Y115.205 E.07355
G1 X134.009 Y118.133 E.09198
G1 X133.187 Y121.556 E.11038
G1 X132.021 Y124.249 E.09198
G1 X130.449 Y126.726 E.09198
G1 X128.926 Y128.509 E.07355
G1 X126.726 Y130.449 E.09198
G1 X123.724 Y132.289 E.11038
G1 X120.996 Y133.369 E.09198
G1 X118.133 Y134.009 E.09198
G1 X115.795 Y134.193 E.07355
G1 X112.867 Y134.009 E.09198
G1 X109.444 Y133.187 E.11038
G1 X106.751 Y132.021 E.09198
G1 X104.274 Y130.449 E.09198
G1 X102.491 Y128.926 E.07355
G1 X100.551 Y126.726 E.09198
G1 X98.711 Y123.724 E.11038
G1 X97.631 Y120.996 E.09198
G1 X96.991 Y118.133 E.09198
G1 X96.807 Y115.795 E.07355
G1 X96.991 Y112.867 E.09198
G1 X97.813 Y109.444 E.11038
G1 X98.979 Y106.751 E.09198
G1 X100.551 Y104.274 E.09198
G1 X102.035 Y102.536 E.07167
G1 X102.326 Y102.777 F9000
G1 F1200
G1 X104.519 Y100.837 E.09182
G1 X106.948 Y99.3 E.09013
G1 X110.092 Y97.998 E.10668
G1 X112.373 Y97.45 E.07355
G1 X115.235 Y97.183 E.09013
G1 X118.104 Y97.367 E.09013
G1 X120.908 Y97.998 E.09013
G1 X124.052 Y99.3 E.10668
G1 X126.052 Y100.526 E.07355
G1 X128.264 Y102.361 E.09013
G1 X130.163 Y104.519 E.09013
G1 X131.7 Y106.948 E.09013
G1 X133.002 Y110.092 E.10668
G1 X133.55 Y112.373 E.07355
G1 X133.817 Y115.235 E.09013
G1 X133.633 Y118.104 E.09013
G1 X133.002 Y120.908 E.09013
G1 X131.7 Y124.052 E.10668
G1 X130.474 Y126.052 E.07355
G1 X128.639 Y128.264 E.09013
G1 X126.481 Y130.163 E.09013
G1 X124.052 Y131.7 E.09013
G1 X120.908 Y133.002 E.10668
G1 X118.627 Y133.55 E.07355
G1 X115.765 Y133.817 E.09013
G1 X112.896 Y133.633 E.09013
G1 X110.092 Y133.002 E.09013
G1 X106.948 Y131.7 E.10668
G1 X104.948 Y130.474 E.07355
G1 X102.736 Y128.639 E.09013
G1 X100.837 Y126.481 E.09013
G1 X99.3 Y124.052 E.09013
G1 X97.998 Y120.908 E.10668
G1 X97.45 Y118.627 E.07355
G1 X97.183 Y115.765 E.09013
G1 X97.367 Y112.896 E.09013
G1 X97.998 Y110.092 E.09013
G1 X99.3 Y106.948 E.10668
G1 X100.526 Y104.948 E.07355
G1 X102.288 Y102.824 E.08654
G1 E-3.5 F3600
;WIPE_START
G1 F7200
G1 X104.519 Y100.837 E-1.41916
G1 X104.53 Y100.831 E-.00584
;WIPE_END
G1 E-.075 F3600
G1 X105.684 Y105.684 F9000
G1 E5 F2400
;TYPE:Perimeter
;WIDTH:0.419999
G1 F1200
G1 X107.34 Y104.269 E.0683
G1 X109.197 Y103.131 E.0683
G1 X111.21 Y102.297 E.0683
G1 X113.328 Y101.788 E.0683
G1 X115.5 Y101.617 E.0683
G1 X117.672 Y101.788 E.0683
G1 X119.79 Y102.297 E.0683
G1 X121.803 Y103.131 E.0683
G1 X123.66 Y104.269 E.0683
G1 X125.316 Y105.684 E.0683
G1 X126.731 Y107.34 E.0683
G1 X127.869 Y109.197 E.0683
G1 X128.703 Y111.21 E.0683
G1 X129.212 Y113.328 E.0683
G1 X129.383 Y115.5 E.0683
G1 X129.212 Y117.672 E.0683
G1 X128.703 Y119.79 E.0683
G1 X127.869 Y121.803 E.0683
G1 X126.731 Y123.66 E.0683
G1 X125.316 Y125.316 E.0683
G1 X123.66 Y126.731 E.0683
G1 X121.803 Y127.869 E.0683
G1 X119.79 Y128.703 E.0683
G1 X117.672 Y129.212 E.0683
G1 X115.5 Y129.383 E.0683
G1 X113.328 Y129.212 E.0683
G1 X111.21 Y128.703 E.0683
G1 X109.197 Y127.869 E.0683
G1 X107.34 Y126.731 E.0683
G1 X105.684 Y125.316 E.0683
G1 X104.269 Y123.66 E.0683
G1 X103.131 Y121.803 E.0683
G1 X102.297 Y119.79 E.0683
G1 X101.788 Y117.672 E.0683
G1 X101.617 Y115.5 E.0683
G1 X101.788 Y113.328 E.0683
G1 X102.297 Y111.21 E.0683
G1 X103.131 Y109.197 E.0683
G1 X104.269 Y107.34 E.0683
G1 X105.645 Y105.729 E.06642
G1 X105.416 Y105.416 F9000
G1 F1200
G1 X107.118 Y103.963 E.07016
G1 X109.026 Y102.794 E.07016
G1 X111.093 Y101.937 E.07016
G1 X113.269 Y101.415 E.07016
G1 X115.5 Y101.239 E.07016
G1 X117.731 Y101.415 E.07016
G1 X119.907 Y101.937 E.07016
G1 X121.974 Y102.794 E.07016
G1 X123.882 Y103.963 E.07016
G1 X125.584 Y105.416 E.07016
G1 X127.037 Y107.118 E.07016
G1 X128.206 Y109.026 E.07016
G1 X129.063 Y111.093 E.07016
G1 X129.585 Y113.269 E.07016
G1 X129.761 Y115.5 E.07016
G1 X129.585 Y117.731 E.07016
G1 X129.063 Y119.907 E.07016
G1 X128.206 Y121.974 E.07016
G1 X127.037 Y123.882 E.07016
G1 X125.584 Y125.584 E.07016
G1 X123.882 Y127.037 E.07016
G1 X121.974 Y128.206 E.07016
G1 X119.907 Y129.063 E.07016
G1 X117.731 Y129.585 E.07016
G1 X115.5 Y129.761 E.07016
G1 X113.269 Y129.585 E.07016
G1 X111.093 Y129.063 E.07016
G1 X109.026 Y128.206 E.07016
G1 X107.118 Y127.037 E.07016
G1 X105.416 Y125.584 E.07016
G1 X103.963 Y123.882 E.07016
G1 X102.794 Y121.974 E.07016
G1 X101.937 Y119.907 E.07016
G1 X101.415 Y117.731 E.07016
G1 X101.239 Y115.5 E.07016
G1 X101.415 Y113.269 E.07016
G1 X101.937 Y111.093 E.07016
G1 X102.794 Y109.026 E.07016
G1 X103.963 Y107.118 E.07016
G1 X105.377 Y105.462 E.06828
G1 X105.149 Y105.149 F9000
;TYPE:External perimeter
G1 F1200
G1 X106.895 Y103.657 E.07202
G1 X108.854 Y102.457 E.07203
G1 X110.976 Y101.577 E.07202
G1 X113.21 Y101.041 E.07203
G1 X115.5 Y100.861 E.07202
G1 X117.79 Y101.041 E.07202
G1 X120.024 Y101.577 E.07203
G1 X122.146 Y102.457 E.07202
G1 X124.105 Y103.657 E.07203
G1 X125.851 Y105.149 E.07202
G1 X127.343 Y106.895 E.07202
G1 X128.543 Y108.854 E.07203
G1 X129.423 Y110.976 E.07202
G1 X129.959 Y113.21 E.07203
G1 X130.139 Y115.5 E.07202
G1 X129.959 Y117.79 E.07202
G1 X129.423 Y120.024 E.07203
G1 X128.543 Y122.146 E.07202
G1 X127.343 Y124.105 E.07203
G1 X125.851 Y125.851 E.07202
G1 X124.105 Y127.343 E.07202
G1 X122.146 Y128.543 E.07203
G1 X120.024 Y129.423 E.07202
G1 X117.79 Y129.959 E.07203
G1 X115.5 Y130.139 E.07202
G1 X113.21 Y129.959 E.07202
G1 X110.976 Y129.423 E.07203
G1 X108.854 Y128.543 E.07202
G1 X106.895 Y127.343 E.07203
G1 X105.149 Y125.851 E.07202
G1 X103.657 Y124.105 E.07202
G1 X102.457 Y122.146 E.07203
G1 X101.577 Y120.024 E.07202
G1 X101.041 Y117.79 E.07203
G1 X100.861 Y115.5 E.07202
G1 X101.041 Y113.21 E.07202
G1 X101.577 Y110.976 E.07203
G1 X102.457 Y108.854 E.07202
G1 X103.657 Y106.895 E.07203
G1 X105.11 Y105.194 E.07014
G1 X105.535 Y105.252 F9000
G1 E-3.5 F3600
;WIPE_START
G1 F7200
G1 X106.895 Y103.657 E-1.11929
G1 X107.444 Y103.32 E-.30571
;WIPE_END
G1 E-.075 F3600
G1 X122.208 Y103.521 F9000
G1 E5 F2400
;TYPE:Solid infill
;WIDTH:0.420466
G1 F1200
G1 X126.965 Y108.278 E.21121
G1 X127.61 Y109.33 E.03872
G1 X127.7 Y109.546 E.00735
G1 X121.454 Y103.3 E.27728
G1 X120.543 Y102.923 E.03097
G1 X128.077 Y110.457 E.33451
G1 X128.439 Y111.353 E.03033
G1 X119.647 Y102.561 E.39033
G1 X118.944 Y102.392 E.02268
G1 X128.608 Y112.056 E.42902
G1 X128.776 Y112.758 E.02268
G1 X118.242 Y102.224 E.4677
G1 X117.554 Y102.07 E.02211
G1 X128.93 Y113.446 E.50503
G1 X128.975 Y114.025 E.01825
G1 X116.975 Y102.025 E.53278
G1 X116.395 Y101.979 E.01825
G1 X129.021 Y114.605 E.56053
G1 X129.066 Y115.184 E.01825
G1 X115.816 Y101.934 E.58829
G1 X115.5 Y101.909 E.00994
G1 X115.275 Y101.926 E.0071
G1 X129.074 Y115.725 E.61263
G1 X129.035 Y116.22 E.01559
G1 X114.78 Y101.965 E.63287
G1 X114.285 Y102.004 E.01559
G1 X128.996 Y116.715 E.65312
G1 X128.957 Y117.21 E.01559
G1 X113.79 Y102.043 E.67336
G1 X113.305 Y102.093 E.01529
G1 X128.907 Y117.695 E.69269
G1 X128.804 Y118.126 E.0139
G1 X112.874 Y102.196 E.70722
G1 X112.444 Y102.299 E.0139
G1 X128.701 Y118.556 E.72175
G1 X128.597 Y118.987 E.0139
G1 X112.013 Y102.403 E.73627
G1 X111.583 Y102.506 E.0139
G1 X128.494 Y119.417 E.7508
G1 X128.426 Y119.7 E.00913
G1 X128.372 Y119.83 E.0044
G1 X111.17 Y102.628 E.76371
G1 X110.793 Y102.784 E.01283
G1 X128.216 Y120.207 E.77353
G1 X128.06 Y120.585 E.01283
G1 X110.415 Y102.94 E.78335
G1 X110.038 Y103.097 E.01283
G1 X127.903 Y120.962 E.79317
G1 X127.747 Y121.34 E.01283
G1 X109.66 Y103.253 E.80298
G1 X109.288 Y103.415 E.01273
G1 X127.585 Y121.712 E.81229
G1 X127.382 Y122.043 E.01219
G1 X108.957 Y103.618 E.81798
G1 X108.626 Y103.821 E.01219
G1 X127.179 Y122.374 E.82367
G1 X126.976 Y122.705 E.01219
G1 X108.295 Y104.024 E.82936
G1 X107.964 Y104.227 E.01219
G1 X126.773 Y123.036 E.83505
G1 X126.57 Y123.367 E.01219
G1 X107.633 Y104.43 E.84074
G1 X107.511 Y104.504 E.00449
G1 X107.329 Y104.66 E.00751
G1 X126.34 Y123.671 E.84402
G1 X126.094 Y123.959 E.01189
G1 X107.041 Y104.906 E.84588
G1 X106.753 Y105.152 E.01189
G1 X125.848 Y124.247 E.84775
G1 X125.602 Y124.535 E.01189
G1 X106.465 Y105.398 E.84962
G1 X106.177 Y105.644 E.01189
G1 X125.356 Y124.823 E.85148
G1 X125.11 Y125.111 E.01189
G1 X105.889 Y105.89 E.85335
G1 X105.644 Y106.177 E.01189
G1 X124.823 Y125.356 E.85148
G1 X124.535 Y125.602 E.01189
G1 X105.398 Y106.465 E.84962
G1 X105.152 Y106.753 E.01189
G1 X124.247 Y125.848 E.84775
G1 X123.959 Y126.094 E.01189
G1 X104.906 Y107.041 E.84588
G1 X104.66 Y107.329 E.01189
G1 X123.671 Y126.34 E.84402
G1 X123.489 Y126.496 E.00751
G1 X123.367 Y126.57 E.00449
G1 X104.43 Y107.633 E.84074
G1 X104.227 Y107.964 E.01219
G1 X123.036 Y126.773 E.83505
G1 X122.705 Y126.976 E.01219
G1 X104.024 Y108.295 E.82936
G1 X103.821 Y108.626 E.01219
G1 X122.374 Y127.179 E.82367
G1 X122.043 Y127.382 E.01219
G1 X103.618 Y108.957 E.81798
G1 X103.415 Y109.289 E.01219
G1 X121.711 Y127.585 E.81229
G1 X121.34 Y127.747 E.01273
G1 X103.253 Y109.66 E.80298
G1 X103.097 Y110.038 E.01283
G1 X120.962 Y127.903 E.79316
G1 X120.585 Y128.06 E.01283
G1 X102.94 Y110.415 E.78334
G1 X102.784 Y110.793 E.01283
G1 X120.207 Y128.216 E.77353
G1 X119.829 Y128.372 E.01283
G1 X102.628 Y111.171 E.76371
G1 X102.574 Y111.3 E.0044
G1 X102.506 Y111.583 E.00913
G1 X119.417 Y128.494 E.7508
G1 X118.987 Y128.597 E.0139
G1 X102.403 Y112.013 E.73627
G1 X102.299 Y112.444 E.0139
G1 X118.556 Y128.701 E.72174
G1 X118.125 Y128.804 E.0139
G1 X102.196 Y112.875 E.70722
G1 X102.093 Y113.305 E.0139
G1 X117.695 Y128.907 E.69269
G1 X117.21 Y128.957 E.01529
G1 X102.043 Y113.79 E.67336
G1 X102.004 Y114.285 E.01559
G1 X116.715 Y128.996 E.65311
G1 X116.22 Y129.035 E.01559
G1 X101.965 Y114.78 E.63287
G1 X101.926 Y115.275 E.01559
G1 X115.725 Y129.074 E.61262
G1 X115.5 Y129.091 E.00709
G1 X115.184 Y129.066 E.00994
G1 X101.934 Y115.816 E.58828
G1 X101.979 Y116.395 E.01825
G1 X114.605 Y129.021 E.56053
G1 X114.025 Y128.975 E.01825
G1 X102.025 Y116.975 E.53277
G1 X102.07 Y117.554 E.01825
G1 X113.446 Y128.93 E.50502
G1 X112.758 Y128.776 E.02211
G1 X102.224 Y118.242 E.46769
G1 X102.393 Y118.944 E.02268
G1 X112.056 Y128.607 E.42901
G1 X111.353 Y128.439 E.02268
G1 X102.561 Y119.647 E.39032
G1 X102.923 Y120.543 E.03033
G1 X110.457 Y128.077 E.33449
G1 X109.546 Y127.699 E.03097
G1 X103.301 Y121.454 E.27727
G1 X103.39 Y121.67 E.00734
G1 X104.035 Y122.722 E.03874
G1 X108.792 Y127.479 E.21119
M106 S255
;LAYER_CHANGE
;Z:0.4
;HEIGHT:0.2
;BEFORE_LAYER_CHANGE
G92 E0
;0.4


G1 E-3.5 F3600
;WIPE_START
G1 F7200
G1 X106.67 Y125.358 E-1.425
;WIPE_END
G1 E-.075 F3600
G1 Z.4 F9000
;AFTER_LAYER_CHANGE
;0.4
M104 S205 ; set temperature
G1 X103.145 Y129.485
G1 E5 F2400
;TYPE:Skirt/Brim
;WIDTH:0.42
G1 X102.491 Y128.926 E.027
G1 X100.551 Y126.726 E.09198
G1 X98.711 Y123.724 E.11038
G1 X97.631 Y120.996 E.09198
G1 X96.991 Y118.133 E.09198
G1 X96.807 Y115.795 E.07355
G1 X96.991 Y112.867 E.09198
G1 X97.813 Y109.444 E.11038
G1 X98.979 Y106.751 E.09198
G1 X100.551 Y104.274 E.09198
G1 X102.074 Y102.491 E.07355
G1 X104.274 Y100.551 E.09198
G1 X107.276 Y98.711 E.11038
G1 X110.004 Y97.631 E.09198
G1 X112.867 Y96.991 E.09198
G1 X115.205 Y96.807 E.07355
G1 X118.133 Y96.991 E.09198
G1 X121.556 Y97.813 E.11038
G1 X124.249 Y98.979 E.09198
G1 X126.726 Y100.551 E.09198
G1 X128.509 Y102.074 E.07355
G1 X130.449 Y104.274 E.09198
G1 X132.289 Y107.276 E.11038
G1 X133.369 Y110.004 E.09198
G1 X134.009 Y112.867 E.09198
G1 X134.193 Y115.205 E.07355
G1 X134.009 Y118.133 E.09198
G1 X133.187 Y121.556 E.11038
G1 X132.021 Y124.249 E.09198
G1 X130.449 Y126.726 E.09198
G1 X128.926 Y128.509 E.07355
G1 X126.726 Y130.449 E.09198
G1 X123.724 Y132.289 E.11038
G1 X120.996 Y133.369 E.09198
G1 X118.133 Y134.009 E.09198
G1 X115.795 Y134.193 E.07355
G1 X112.867 Y134.009 E.09198
G1 X109.444 Y133.187 E.11038
G1 X106.751 Y132.021 E.09198
G1 X104.274 Y130.449 E.09198
G1 X103.191 Y129.524 E.04468
G1 X103.44 Y129.224 F9000
G1 F2400
G1 X102.736 Y128.639 E.0287
G1 X100.837 Y126.481 E.09013
G1 X99.3 Y124.052 E.09013
G1 X97.998 Y120.908 E.10668
G1 X97.45 Y118.627 E.07355
G1 X97.183 Y115.765 E.09013
G1 X97.367 Y112.896 E.09013
G1 X97.998 Y110.092 E.09013
G1 X99.3 Y106.948 E.10668
G1 X100.526 Y104.948 E.07355
G1 X102.361 Y102.736 E.09013
G1 X104.519 Y100.837 E.09013
G1 X106.948 Y99.3 E.09013
G1 X110.092 Y97.998 E.10668
G1 X112.373 Y97.45 E.07355
G1 X115.235 Y97.183 E.09013
G1 X118.104 Y97.367 E.09013
G1 X120.908 Y97.998 E.09013
G1 X124.052 Y99.3 E.10668
G1 X126.052 Y100.526 E.07355
G1 X128.264 Y102.361 E.09013
G1 X130.163 Y104.519 E.09013
G1 X131.7 Y106.948 E.09013
G1 X133.002 Y110.092 E.10668
G1 X133.55 Y112.373 E.07355
G1 X133.817 Y115.235 E.09013
G1 X133.633 Y118.104 E.09013
G1 X133.002 Y120.908 E.09013
G1 X131.7 Y124.052 E.10668
G1 X130.474 Y126.052 E.07355
G1 X128.639 Y128.264 E.09013
G1 X126.481 Y130.163 E.09013
G1 X124.052 Y131.7 E.09013
G1 X120.908 Y133.002 E.10668
G1 X118.627 Y133.55 E.07355
G1 X115.765 Y133.817 E.09013
G1 X112.896 Y133.633 E.09013
G1 X110.092 Y133.002 E.09013
G1 X106.948 Y131.7 E.10668
G1 X104.948 Y130.474 E.07355
G1 X103.486 Y129.262 E.05954
G1 E-3.5 F3600
;WIPE_START
G1 F7200
G1 X102.736 Y128.639 E-.46333
G1 X101.399 Y127.119 E-.96167
;WIPE_END
G1 E-.075 F3600
G1 X105.705 Y125.295 F9000
G1 E5 F2400
;TYPE:Perimeter
;WIDTH:0.439999
G1 X104.293 Y123.642 E.07177
G1 X103.157 Y121.789 E.07177
G1 X102.325 Y119.781 E.07177
G1 X101.818 Y117.667 E.07177
G1 X101.647 Y115.5 E.07177
G1 X101.818 Y113.333 E.07177
G1 X102.325 Y111.219 E.07177
G1 X103.157 Y109.211 E.07177
G1 X104.293 Y107.358 E.07177
G1 X105.705 Y105.705 E.07177
G1 X107.358 Y104.293 E.07177
G1 X109.211 Y103.157 E.07177
G1 X111.219 Y102.325 E.07177
G1 X113.333 Y101.818 E.07177
G1 X115.5 Y101.647 E.07177
G1 X117.667 Y101.818 E.07177
G1 X119.781 Y102.325 E.07177
G1 X121.789 Y103.157 E.07177
G1 X123.642 Y104.293 E.07177
G1 X125.295 Y105.705 E.07177
G1 X126.707 Y107.358 E.07177
G1 X127.843 Y109.211 E.07177
G1 X128.675 Y111.219 E.07177
G1 X129.182 Y113.333 E.07177
G1 X129.353 Y115.5 E.07177
G1 X129.182 Y117.667 E.07177
G1 X128.675 Y119.781 E.07177
G1 X127.843 Y121.789 E.07177
G1 X126.707 Y123.642 E.07177
G1 X125.295 Y125.295 E.07177
G1 X123.642 Y126.707 E.07177
G1 X121.789 Y127.843 E.07177
G1 X119.781 Y128.675 E.07177
G1 X117.667 Y129.182 E.07177
G1 X115.5 Y129.353 E.07177
G1 X113.333 Y129.182 E.07177
G1 X111.219 Y128.675 E.07177
G1 X109.211 Y127.843 E.07177
G1 X107.358 Y126.707 E.07177
G1 X105.75 Y125.334 E.06979
G1 X105.423 Y125.577 F9000
G1 F2400
G1 X103.971 Y123.877 E.07383
G1 X102.802 Y121.97 E.07384
G1 X101.946 Y119.904 E.07383
G1 X101.424 Y117.729 E.07384
G1 X101.249 Y115.5 E.07383
G1 X101.424 Y113.271 E.07383
G1 X101.946 Y111.096 E.07384
G1 X102.802 Y109.03 E.07383
G1 X103.971 Y107.123 E.07384
